X: 796
T: Gel Külbe-i Ahzânıma
C: ?
O: Turkey
F: http://compmusic.upf.edu/node/140
N: saba--sarki--nimsofyan--gel_kulbe-i--
N: makam= saba
N: form= sarki
N: usul= nimsofyan = 2/4
M: 2/4
L: 1/16
K: C _2/4B _3/4d  
Q: 1/4=60
%%MIDI tuningsystem comma53
A3B c4  | c3d c4  | c4 d2d2  | c4 B3c  | A8  | \
w:  Gel  *  kül  |  be  i  ah  |  zâ  |  *  nı ma   |  ey   | 
A3B c3d  | c3d c4  | B4 c4  | 
w:  ser  |  vi  re vâ  |  *  nım   | 
c4 B4  | A4 B4  | c3B A4  | A3B c3d  | c4 B3A  | B8  | \
w:  câ nım    |  Cev ret  |  me  ye ter   |  ben  |  de  i   |  mah  | 
A3B c3d  | c4 B3c  | 
w:  zû  |  nu  u  | 
A4 ABcB  | A8  | d2e2 z4  | d3e e4  | e3f e4  | \
w:  nut ma    |   |  Ka nağ  |  la nağ dan   |  kal  | 
d4 c4  | B2A2 z4  | A3B c3d  | 
w:  *  ma  |  dı  hiç   |  ta  | 
c3d c4  | B4 c4  | A4 B4  | c3B A4  | A3B c3d  | \
w:  bu  tü vâ  |  *  nım    |  Cev ret  |  me  ye ter   |  ben  | 
c4 B3A  | B8  | A3B c3d  | 
w:  de  i   |  mah  |  zû  | 
c4 B3c  | A4 ABcd  | A8  | A3B c4  | c3d c4  | \
w:  nu  u  |  nut ma    |   |  Ben  *  âh   |  e de rim   | 
c4 d2d2  | c4 B3c  | 
w:  kû  |  *  şe  i   | 
A8  | A3B c3d  | c3d c4  | B4 c4  | A4 B4  | c3B A4  | \
w:  gam  |  da   |  i  tek  ü   |  ten ha    |  Ağ yar   |  is te sin   | 
A3B c3d  | c4 B3A  | 
w:  gül   |  a çıl  | 
B8  | A3B c3d  | c4 B3c  | A4 ABcB  | A8  | |


